X:1
T:Die schöne Müllerin (D.795)
T:Trockne Blumen
T:18. Trockne Blumen
T:Franz Schubert
T:Die schöne Müllerin (D.795) 
T:Friedrich Müller
T:OpenScore (CC0)
T:OpenScore (CC0)
T:OpenScore (CC0)
T:OpenScore (CC0)
C:Franz Schubert
Z:Wilhelm Müller
Z:OpenScore (CC0)
%%score 1 { ( 2 4 ) | ( 3 5 6 ) }
L:1/8
Q:1/4=36
M:2/4
K:G
V:1 treble nm="Singstimme"
V:2 treble nm="Pianoforte"
V:4 treble 
V:3 bass 
V:5 bass 
V:6 bass 
V:1
"^Ziemlich langsam." z4 | z2 z3/2!mp! B/ | B3/2 B/ e e/ e/ | G/F/ G/A/ B3/2 B/ | B3/2 B/ d d/ d/ | %5
w: |Ihr|Blüm- lein al- le, die|sie _ mir * gab, euch|soll man le- gen mit|
 A/c/ B/A/ G3/2 B/ | B3/2 B/ e e/ e/ | G/F/ G/A/ B3/2 B/ | B3/2 B/ e d/ d/ | A/c/ B/A/ B3/2 B/ | %10
w: mir * in's * Grab. Wie|seht ihr  al- le mich|an _ so _ weh, als|ob ihr wüs- stet, wie|mir * ge- * scheh'? Ihr|
 B/F/ F/B/ B/G/ G/ B/ | d e/c/ B3/2 B/ | B/F/ F/B/ B/G/ G/ B/ | e3/2 ^d/ f2- | f2 z2 | z2 z3/2 B/ | %16
w: Blüm- * lein * al- * le, wie|welk, wie * blass? ihr|Blüm- * lein * al- * le, wo-|von so nass?|_|Ach,|
 B3/2 B/ e e/ e/ | G/F/ G/A/ B B/ B/ | B3/2 B/ d d/ d/ | A/c/ B/A/ G3/2 B/ | B3/2 B/ B/e/ e/ e/ | %21
w: Thrä- nen mach- en nicht|mai- * en- * grün, ma- chen|to- dte Lie- be nicht|wie- * der * blüh'n, und|Lenz wird kom- * men, und|
 G/F/ G/ A/4c/4 B3/2 B/ | B3/2 B/ e d/ d/ | A/c/ B/A/ B3/2 B/ | B/F/ F/B/ B/G/ G/ B/ | %25
w: Win- * ter wird * geh'n, und|Blüm- lein wer- den im|Gra- * se _ steh'n, und|Blüm- * lein * lie- * gen in|
 d e/c/ B3/2 B/ | B/F/ F/B/ B/G/ G/ B/ | f3/2 e/ ^d2 | z4 ||[K:E][Q:1/4=46] z2 z3/2 B/ | %30
w: mei- nem * Grab, die|Blüm- * lein * al- * le, die|sie mir gab.||Und|
 B3/2 c/ B/>A/ G/ B/ | B B/ c/ B3/2 B/ | ^B3/2 B/ c c/ e/ | ^B3/2 B/ c3/2 c/ | %34
w: wenn sie wand- * elt am|Hü- gel vor- bei und|denkt im Her- zen, der|meint' es treu! dann|
!<(! c3/2 c/ e =B/ B/ | c3/2 c/ e3/2 e/!<)! |!f! e3/2 e/ g f/ e/ | f e/ d/ e3/2 z/ | %38
w: Blüm- lein al- le her-|aus, her- aus! der|Mai ist kom- men, der|Win- ter ist aus.|
 z2 z3/2[Q:1/4=40]!p! B/ | B3/2 c/ B/>A/ G/ B/ | B B/ c/ B3/2 B/ | ^B3/2 B/ c c/ e/ | %42
w: Und|wenn sie wan- * delt am|Hü- gel vor- bei, und|denkt im Her- zen, der|
 ^B3/2 B/ c3/2 c/ | c3/2 c/ e =B/ B/ | c3/2 c/ e3/2 e/ | e3/2 e/ !>!g f/!<(! e/ | %46
w: meint' es treu! dann|Blüm- lein al- le her-|aus, her- aus! der|Mai ist kom- men, der|
 !>!f e/ d/ e3/2[Q:1/4=50] B/!<)! |!f! B3/2 B/ e B/ B/ | B3/2 B/ e3/2 e/ | %49
w: Win- ter ist aus, dann|Blüm- lein al- le her-|aus, her- aus! der|
[Q:1/4=48] e3/2[Q:1/4=44]"^.6" e/[Q:1/4=43]"^.5" !>!g[Q:1/4=41]"^.3" f/[Q:1/4=40]"^.1" e/[Q:1/4=46]"^.3"[Q:1/4=45]"^.8" | %50
w: Mai ist kom- men, der|
[Q:1/4=39] !>!f[Q:1/4=36]"^.8" e/[Q:1/4=35]"^.6" d/[Q:1/4=34]"^.5" e2[Q:1/4=37]"^.9"[Q:1/4=31]"^.1" | %51
w: Win- ter ist aus.|
[Q:1/4=46] z4 | z4 | z4 | z4 | z4 | z4 |] %57
w: ||||||
V:2
 [B,G] z [B,G] z | [B,G] z [B,G] z | [B,G] z [B,G] z | [B,G] z [B,G] z | [B,G] z [_B,G] z | %5
 [A,F] z [=B,G] z | [B,G] z [B,G] z | [B,G] z [B,G] z | [B,G] z [_B,G] z | [A,F] z [=B,G] z | %10
 [B,^DF]z/[B,DF]/ [B,EG]z/[B,EG]/ | [=DFA]z/[DFA]/ [DGB] z | [B,^DF]z/[B,DF]/ [B,EG]z/[B,EG]/ | %13
 [E^A] z [^DB] z | (e>^d) f2- | f2 z2 | [B,G] z [B,G] z | [B,G] z [B,G] z | [B,G] z [_B,G] z | %19
 [A,F] z [=B,G] z | [B,G] z [B,G] z | [B,G] z [B,G] z | [B,G] z [_B,G] z | [A,F] z [=B,G] z | %24
 [B,^DF]z/[B,DF]/ [B,EG]z/[B,EG]/ | [=DFA]z/[DFA]/ [DGB] z | [B,^DF]z/[B,DF]/ [B,EG]z/[B,EG]/ | %27
 ((([A,EA]2 [B,^DB]2))) | f>e ^d2 ||[K:E] [DFB]z/[DFB]/ [EGB]z/[EGB]/ | %30
 [DFB]z/[DFB]/ [EGB]z/[EGB]/ | [DFB]z/[DFB]/ [EGB]z/[EGB]/ | [DG^B]z/[DGB]/ [EGc]z/[EGc]/ | %33
 [DG^B]z/[DGB]/ [EGc]z/[EGc]/ | c>c =B>B | c>c B>B | [Ee]/>[Ff]/[Gg]/[^A^a]/ [Bb][=A=a]/[Gg]/ | %37
 [Aa][Gg]/[Ff]/ [Ee]3/2 [EGB]/ | [DFB]z/[DFB]/ [EGB]z/[EGB]/ | [DFB]z/[DFB]/ [EGB]z/[EGB]/ | %40
 [DFB]z/[DFB]/ [EGB]z/[EGB]/ | [DG^B]z/[DGB]/ [EGc]z/[EGc]/ | [DG^B]z/[DGB]/ [EGc]z/[EGc]/ | %43
 c>c =B>B | c>c B>B | [Ee]/>!<(![Ff]/[Gg]/[^A^a]/!<)!!>(! [Bb][=A=a]/!>)![Gg]/ | %46
 [Aa][Gg]/[Ff]/ [Ee]3/2 [GBe]/ | [ABg][ABf]/[ABf]/ [GBg][Ge]/[Ge]/ | %48
 [ABg][ABf]/[ABf]/ [GBg][Ge]/[Ge]/ | [Ee]/>[Ff]/[Gg]/[^A^a]/ [Bb][=A=a]/[Gg]/ | %50
 [Aa][Gg]/[Ff]/ [Ee]>[EGB] | [DFB]z/[DFB]/ [EGB]z/[EGB]/ | %52
 [DFB]z/[DFB]/ [EGB] z/[K:bass] [E,=G,B,]/ | [D,F,B,]z/[D,F,B,]/ [E,=G,B,]z/[E,G,B,]/ | %54
 [D,F,B,]z/[D,F,B,]/ [E,=G,B,]z/[E,G,B,]/ | [D,F,B,]z/[D,F,B,]/ [E,=G,B,]z/[E,G,B,]/ | %56
 [E,=G,B,]3 z |] %57
V:3
!p! E, z E, z | E, z E, z | E, z E, z | E, z E, z | D, z !>!D, z | D, z G, z | E, z E, z | %7
 E, z E, z | D, z D, z | D, z G, z | B,,z/B,,/ E,z/E,/ | D,z/D,/ G, z | B,,z/B,,/ E,z/E,/ | %13
 C, z B,, z | [CE]2 [B,^D]2- | [B,^D]2 z2 | E, z E, z | E, z E, z | D, z D, z | D, z G, z | %20
 E, z E, z | E, z E, z | D, z D, z | D, z G, z | B,,z/B,,/ E,z/E,/ | D,z/D,/ G, z | %26
 B,,z/B,,/ E,z/E,/ | (C,2 B,,2) | C,2 B,,>B, ||[K:E]!pp! !>!B,/>C/B,/A,/ G,/>F,/E,/G,/ | %30
 !>!B,/>C/B,/A,/ G,/>F,/E,/G,/ | B,/>C/B,/A,/ G,/>F,/E,/G,/ | G,/>A,/G,/F,/ E,/>D,/C,/G,,/ | %33
 G,/>A,/G,/F,/ E,/>D,/C,/G,,/ | E,/>F,/=G,/E,/ E,/>F,/^G,/E,/ | E,/>F,/=G,/E,/ E,/>F,/^G,/E,/ | %36
!f! E,/>F,/G,/^A,/ B,B,/B,/ | B,B,/B,/ [E,G,]3/2!pp! B,/ | B,/>C/B,/A,/ G,/>F,/E,/G,/ | %39
 B,/>C/B,/A,/ G,/>F,/E,/G,/ | B,/>C/B,/A,/ G,/>F,/E,/G,/ | G,/>A,/G,/F,/ E,/>D,/C,/G,,/ | %42
 G,/>A,/G,/F,/ E,/>D,/C,/B,,/ | E,/>F,/=G,/E,/ E,/>F,/^G,/E,/ | E,/>F,/=G,/E,/ E,/>F,/^G,/E,/ | %45
!p! E,/>F,/G,/^A,/ B,B,/B,/ | B,B,/B,/ [G,B,]/>[F,A,]/[G,B,]/B,/ | %47
!f! !>![E,B,E][E,B,D]/[E,B,D]/ !>![E,B,E][E,B,]/[E,B,]/ | %48
 !>![E,B,E][E,B,D]/[E,B,D]/ !>![E,B,E][E,B,]/[E,B,]/ | E,/>F,/G,/^A,/ B,B,/B,/ | %50
 B,B,/B,/ [E,G,B,]>!p!B, | (!>!B,/>C/B,/A,/ G,/>F,/E,/G,/) | (!>!B,/>C/B,/A,/ G,/>F,/E,/!pp!B,,/) | %53
 (!>!B,,/>=C,/B,,/A,,/ =G,,/>F,,/E,,/G,,/) | (!>!B,,/>=C,/B,,/A,,/ =G,,/>F,,/E,,/B,,,/) | %55
 (!>!B,,/>=C,/B,,/A,,/"_dim." =G,,/>F,,/E,,/B,,,/) |!ppp! E,,3 z |] %57
V:4
 x4 | x4 | x4 | x4 | x4 | x4 | x4 | x4 | x4 | x4 | x4 | x4 | x4 | x4 | ^A2 B2- | B2 x2 | x4 | x4 | %18
 x4 | x4 | x4 | x4 | x4 | x4 | x4 | x4 | x4 | x4 | [E^A]2 [FB]2 ||[K:E] x4 | x4 | x4 | x4 | x4 | %34
 =G/>!p!F/E/A/ ^G/>!p!F/E/G/ | =G/>F/E/A/ ^G/>F/E/G/ | x4 | x4 | x4 | x4 | x4 | x4 | x4 | %43
 =G/>F/E/A/ ^G/>F/E/G/ | =G/>F/E/A/ ^G/>F/E/G/ | x4 | x4 | x4 | x4 | x4 | x4 | x4 | %52
 x7/2[K:bass] x/ | x4 | x4 | x4 | x4 |] %57
V:5
 x4 | x4 | x4 | x4 | x4 | x4 | x4 | x4 | x4 | x4 | x4 | x4 | x4 | x4 | x4 | x4 | x4 | x4 | x4 | %19
 x4 | x4 | x4 | x4 | x4 | x4 | x4 | x4 | x4 | x4 ||[K:E] x4 | x4 | x4 | x4 | x4 | %34
 ^A,,>A,, B,,>B,, | ^A,,>A,, B,,>B,, | C,[C,E,]/[C,E,]/ [B,,E,][B,,E,]/[B,,E,]/ | %37
 B,,[B,,G,]/[B,,A,]/ x2 | x4 | x4 | x4 | x4 | x4 | ^A,,>A,, B,,>B,, | ^A,,>A,, B,,>B,, | %45
 C,[C,E,]/[C,E,]/ [B,,E,][B,,E,]/[B,,E,]/ | B,,[B,,G,]/[B,,A,]/ E,>E, | x4 | x4 | %49
 C,[C,E,]/[C,E,]/ [B,,E,][B,,E,]/[B,,E,]/ | B,,[B,,G,]/[B,,A,]/ x2 | x4 | x4 | x4 | x4 | x4 | x4 |] %57
V:6
 x4 | x4 | x4 | x4 | x4 | x4 | x4 | x4 | x4 | x4 | x4 | x4 | x4 | x4 | x4 | x4 | x4 | x4 | x4 | %19
 x4 | x4 | x4 | x4 | x4 | x4 | x4 | x4 | x4 | x4 ||[K:E] x4 | x4 | x4 | x4 | x4 | x4 | x4 | x4 | %37
 D,/F,/ x3 | x4 | x4 | x4 | x4 | x4 | x4 | x4 | x4 | D,/F,/ x3 | x4 | x4 | x4 | D,/F,/ x3 | x4 | %52
 x4 | x4 | x4 | x4 | x4 |] %57

